X: 1513
T: Hackett's Schottische
B: australian traditional tunes wiki
M:4/4
L:1/8
R: Schottische
Q: 1/4=100
K:G
V:1 
(3DEF|:"G"G2 G>F G2-G>B|"D7"A>G A>B "C"c2-(3cBc|"G"d>g f>g "D7"e>c A>F|1 "G"G>A (3BAG "D7"D2 (3DEF:|2"G"G2 G>F G>A B>c||
"G"d2 d>B d>B g>f |"C"e>c G>c e2-e>f|"G"(3gfg "D7"f>g e>c A>F|"G"G>A (3BAG "D7"D2-(3DBc|
"G"d>B G>B d>B g>d|"C"e>c A>c e2-e>f|"G"(3gfg "D7"f>g e>c A>F|"G"G2 G>F G2||
% abcbook-tune_id 6342d53a8d25ee4f44a3d5b1


% abcbook-boost 0
% abcbook-tablature 
% abcbook-transpose 
% abcbook-lastupdated 1665324368652
% abcbook-soundfonts 
% abcbook-repeats 1
% NFF Book 2009

